; generated by Slic3r 1.0.1-dev on 2014-03-12 at 19:12:46

; perimeters extrusion width = 0.50mm
; infill extrusion width = 0.52mm
; solid infill extrusion width = 0.52mm
; top infill extrusion width = 0.52mm

G21 ; set units to millimeters
M107
M104 S200 T-1 ; set temperature
M104 S200 T0 ; set temperature
G28 ; home all axes
G1 Z5 F5000 ; lift nozzle

M109 S200 T-1 ; wait for temperature to be reached
M109 S200 T0 ; wait for temperature to be reached
G90 ; use absolute coordinates
G92 E0
M82 ; use absolute distances for extrusion
T-1
G92 E0
G1 F1800.000 E-1.00000
G92 E0
G1 Z0.350 F7800.000
G1 F1800.000 E-9.00000
G92 E0
T0
G92 E0
G1 F1800.000 E-1.00000
G92 E0
G1 X-32.157 Y-38.000 F7800.000
G1 E1.00000 F1800.000
G1 X-31.760 Y-40.265 E1.07480 F540
G1 X-30.616 Y-42.259 E1.14960
G1 X-28.863 Y-43.745 E1.22440
G1 X-26.708 Y-44.547 E1.29920
G1 X-25.500 Y-44.657 E1.33866
G1 X25.500 Y-44.657 E2.99795
G1 X27.765 Y-44.260 E3.07275
G1 X29.759 Y-43.116 E3.14755
G1 X31.245 Y-41.363 E3.22235
G1 X32.047 Y-39.208 E3.29715
G1 X32.157 Y-38.000 E3.33661
G1 X32.157 Y38.000 E5.80928
G1 X31.760 Y40.265 E5.88408
G1 X30.616 Y42.259 E5.95888
G1 X28.863 Y43.745 E6.03368
G1 X26.708 Y44.547 E6.10848
G1 X25.500 Y44.657 E6.14794
G1 X-25.500 Y44.657 E7.80723
G1 X-27.765 Y44.260 E7.88203
G1 X-29.759 Y43.116 E7.95684
G1 X-31.245 Y41.363 E8.03164
G1 X-32.047 Y39.208 E8.10644
G1 X-32.157 Y38.000 E8.14589
G1 X-32.157 Y-37.925 E10.61613
G1 F1800.000 E0.61613
G92 E0
T-1
G92 E0
G1 X-22.522 Y-35.022 F7800.000
G1 E10.00000 F1800.000
G1 X22.522 Y-35.022 E11.46549 F540
G1 X22.522 Y35.022 E13.74437
G1 X-22.522 Y35.022 E15.20987
G1 X-22.522 Y-34.947 E17.48630
G1 X-23.179 Y-35.679 F7800.000
G1 X23.179 Y-35.679 E18.99455 F540
G1 X23.179 Y35.679 E21.31619
G1 X-23.179 Y35.679 E22.82444
G1 X-23.179 Y-35.604 E25.14363
G1 X-23.836 Y-36.336 F7800.000
G1 X23.836 Y-36.336 E26.69464 F540
G1 X23.836 Y36.336 E29.05902
G1 X-23.836 Y36.336 E30.61003
G1 X-23.836 Y-36.261 E32.97198
G1 X-24.493 Y-36.993 F7800.000
G1 X24.493 Y-36.993 E34.56575 F540
G1 X24.493 Y36.993 E36.97289
G1 X-24.493 Y36.993 E38.56665
G1 X-24.493 Y-36.918 E40.97136
G1 X-25.150 Y-37.650 F7800.000
G1 X25.150 Y-37.650 E42.60788 F378
G1 X25.150 Y37.650 E45.05778
G1 X-25.150 Y37.650 E46.69430
G1 X-25.150 Y-37.575 E49.14176
G1 X-24.717 Y-37.400 F7800.000
G1 F1800.000 E48.14176
G92 E0
G1 X22.065 Y-34.525 F7800.000
G1 E1.00000 F1800.000
G1 X22.025 Y-34.565 E1.00128 F1080
G1 X21.090 Y-34.565 E1.02251
G1 X22.065 Y-33.590 E1.05380
G1 X22.065 Y-32.655 E1.07503
G1 X20.155 Y-34.565 E1.13634
G1 X19.219 Y-34.565 E1.15756
G1 X22.065 Y-31.719 E1.24889
G1 X22.065 Y-30.784 E1.27011
G1 X18.284 Y-34.565 E1.39145
G1 X17.348 Y-34.565 E1.41267
G1 X22.065 Y-29.848 E1.56402
G1 X22.065 Y-28.913 E1.58525
G1 X16.413 Y-34.565 E1.76661
G1 X15.478 Y-34.565 E1.78783
G1 X22.065 Y-27.978 E1.99921
G1 X22.065 Y-27.042 E2.02044
G1 X14.542 Y-34.565 E2.26183
G1 X13.607 Y-34.565 E2.28305
G1 X22.065 Y-26.107 E2.55446
G1 X22.065 Y-25.172 E2.57568
G1 X12.671 Y-34.565 E2.87711
G1 X11.736 Y-34.565 E2.89833
G1 X22.065 Y-24.236 E3.22976
G1 X22.065 Y-23.301 E3.25099
G1 X10.801 Y-34.565 E3.61244
G1 X9.865 Y-34.565 E3.63366
G1 X22.065 Y-22.365 E4.02512
G1 X22.065 Y-21.430 E4.04634
G1 X8.930 Y-34.565 E4.46782
G1 X7.995 Y-34.565 E4.48904
G1 X22.065 Y-20.495 E4.94053
G1 X22.065 Y-19.559 E4.96176
G1 X7.059 Y-34.565 E5.44326
G1 X6.124 Y-34.565 E5.46448
G1 X22.065 Y-18.624 E5.97600
G1 X22.065 Y-17.688 E5.99723
G1 X5.188 Y-34.565 E6.53876
G1 X4.253 Y-34.565 E6.55998
G1 X22.065 Y-16.753 E7.13153
G1 X22.065 Y-15.818 E7.15275
G1 X3.318 Y-34.565 E7.75431
G1 X2.382 Y-34.565 E7.77553
G1 X22.065 Y-14.882 E8.40710
G1 X22.065 Y-13.947 E8.42833
G1 X1.447 Y-34.565 E9.08991
G1 X0.512 Y-34.565 E9.11114
G1 X22.065 Y-13.012 E9.80274
G1 X22.065 Y-12.076 E9.82396
G1 X-0.424 Y-34.565 E10.54557
G1 X-1.359 Y-34.565 E10.56680
G1 X22.065 Y-11.141 E11.31843
G1 X22.065 Y-10.205 E11.33965
G1 X-2.295 Y-34.565 E12.12129
G1 X-3.230 Y-34.565 E12.14251
G1 X22.065 Y-9.270 E12.95417
G1 X22.065 Y-8.335 E12.97539
G1 X-4.165 Y-34.565 E13.81706
G1 X-5.101 Y-34.565 E13.83828
G1 X22.065 Y-7.399 E14.70997
G1 X22.065 Y-6.464 E14.73119
G1 X-6.036 Y-34.565 E15.63289
G1 X-6.972 Y-34.565 E15.65411
G1 X22.065 Y-5.528 E16.58582
G1 X22.065 Y-4.593 E16.60704
G1 X-7.907 Y-34.565 E17.56877
G1 X-8.842 Y-34.565 E17.58999
G1 X22.065 Y-3.658 E18.58173
G1 X22.065 Y-2.722 E18.60295
G1 X-9.778 Y-34.565 E19.62471
G1 X-10.713 Y-34.565 E19.64593
G1 X22.065 Y-1.787 E20.69770
G1 X22.065 Y-0.852 E20.71892
G1 X-11.648 Y-34.565 E21.80070
G1 X-12.584 Y-34.565 E21.82192
G1 X22.065 Y0.084 E22.93371
G1 X22.065 Y1.019 E22.95494
G1 X-13.519 Y-34.565 E24.09675
G1 X-14.455 Y-34.565 E24.11797
G1 X22.065 Y1.955 E25.28979
G1 X22.065 Y2.890 E25.31101
G1 X-15.390 Y-34.565 E26.51285
G1 X-16.325 Y-34.565 E26.53407
G1 X22.065 Y3.825 E27.76592
G1 X22.065 Y4.761 E27.78714
G1 X-17.261 Y-34.565 E29.04900
G1 X-18.196 Y-34.565 E29.07023
G1 X22.065 Y5.696 E30.36210
G1 X22.065 Y6.632 E30.38333
G1 X-19.132 Y-34.565 E31.70522
G1 X-20.067 Y-34.565 E31.72644
G1 X22.065 Y7.567 E33.07834
G1 X22.065 Y8.502 E33.09957
G1 X-21.002 Y-34.565 E34.48149
G1 X-21.938 Y-34.565 E34.50271
G1 X22.065 Y9.438 E35.91464
G1 X22.065 Y10.373 E35.93586
G1 X-22.065 Y-33.758 E37.35189
G1 X-22.065 Y-32.822 E37.37311
G1 X22.065 Y11.308 E38.78914
G1 X22.065 Y12.244 E38.81036
G1 X-22.065 Y-31.887 E40.22639
G1 X-22.065 Y-30.951 E40.24761
G1 X22.065 Y13.179 E41.66364
G1 X22.065 Y14.115 E41.68486
G1 X-22.065 Y-30.016 E43.10089
G1 X-22.065 Y-29.081 E43.12212
G1 X22.065 Y15.050 E44.53814
G1 X22.065 Y15.985 E44.55937
G1 X-22.065 Y-28.145 E45.97539
G1 X-22.065 Y-27.210 E45.99662
G1 X22.065 Y16.921 E47.41264
G1 X22.065 Y17.856 E47.43387
G1 X-22.065 Y-26.275 E48.84989
G1 X-22.065 Y-25.339 E48.87112
G1 X22.065 Y18.791 E50.28714
G1 X22.065 Y19.727 E50.30837
G1 X-22.065 Y-24.404 E51.72440
G1 X-22.065 Y-23.468 E51.74562
G1 X22.065 Y20.662 E53.16165
G1 X22.065 Y21.598 E53.18287
G1 X-22.065 Y-22.533 E54.59890
G1 X-22.065 Y-21.598 E54.62012
G1 X22.065 Y22.533 E56.03615
G1 X22.065 Y23.468 E56.05737
G1 X-22.065 Y-20.662 E57.47340
G1 X-22.065 Y-19.727 E57.49462
G1 X22.065 Y24.404 E58.91065
G1 X22.065 Y25.339 E58.93187
G1 X-22.065 Y-18.791 E60.34790
G1 X-22.065 Y-17.856 E60.36912
G1 X22.065 Y26.275 E61.78515
G1 X22.065 Y27.210 E61.80637
G1 X-22.065 Y-16.921 E63.22240
G1 X-22.065 Y-15.985 E63.24362
G1 X22.065 Y28.145 E64.65965
G1 X22.065 Y29.081 E64.68087
G1 X-22.065 Y-15.050 E66.09690
G1 X-22.065 Y-14.115 E66.11812
G1 X22.065 Y30.016 E67.53415
G1 X22.065 Y30.951 E67.55537
G1 X-22.065 Y-13.179 E68.97140
G1 X-22.065 Y-12.244 E68.99262
G1 X22.065 Y31.887 E70.40865
G1 X22.065 Y32.822 E70.42987
G1 X-22.065 Y-11.308 E71.84590
G1 X-22.065 Y-10.373 E71.86712
G1 X22.065 Y33.758 E73.28315
G1 X21.938 Y34.565 E73.30171
G1 X-22.065 Y-9.438 E74.71364
G1 X-22.065 Y-8.502 E74.73486
G1 X21.002 Y34.565 E76.11678
G1 X20.067 Y34.565 E76.13800
G1 X-22.065 Y-7.567 E77.48991
G1 X-22.065 Y-6.632 E77.51113
G1 X19.132 Y34.565 E78.83302
G1 X18.196 Y34.565 E78.85424
G1 X-22.065 Y-5.696 E80.14612
G1 X-22.065 Y-4.761 E80.16734
G1 X17.261 Y34.565 E81.42920
G1 X16.325 Y34.565 E81.45043
G1 X-22.065 Y-3.825 E82.68228
G1 X-22.065 Y-2.890 E82.70350
G1 X15.390 Y34.565 E83.90533
G1 X14.455 Y34.565 E83.92656
G1 X-22.065 Y-1.955 E85.09838
G1 X-22.065 Y-1.019 E85.11960
G1 X13.519 Y34.565 E86.26141
G1 X12.584 Y34.565 E86.28263
G1 X-22.065 Y-0.084 E87.39442
G1 X-22.065 Y0.852 E87.41565
G1 X11.648 Y34.565 E88.49743
G1 X10.713 Y34.565 E88.51865
G1 X-22.065 Y1.787 E89.57042
G1 X-22.065 Y2.722 E89.59164
G1 X9.778 Y34.565 E90.61339
G1 X8.842 Y34.565 E90.63461
G1 X-22.065 Y3.658 E91.62635
G1 X-22.065 Y4.593 E91.64758
G1 X7.907 Y34.565 E92.60930
G1 X6.972 Y34.565 E92.63052
G1 X-22.065 Y5.528 E93.56223
G1 X-22.065 Y6.464 E93.58346
G1 X6.036 Y34.565 E94.48516
G1 X5.101 Y34.565 E94.50638
G1 X-22.065 Y7.399 E95.37806
G1 X-22.065 Y8.335 E95.39928
G1 X4.165 Y34.565 E96.24095
G1 X3.230 Y34.565 E96.26218
G1 X-22.065 Y9.270 E97.07383
G1 X-22.065 Y10.205 E97.09506
G1 X2.295 Y34.565 E97.87670
G1 X1.359 Y34.565 E97.89792
G1 X-22.065 Y11.141 E98.64955
G1 X-22.065 Y12.076 E98.67077
G1 X0.424 Y34.565 E99.39239
G1 X-0.512 Y34.565 E99.41361
G1 X-22.065 Y13.012 E100.10521
G1 X-22.065 Y13.947 E100.12643
G1 X-1.447 Y34.565 E100.78802
G1 X-2.382 Y34.565 E100.80924
G1 X-22.065 Y14.882 E101.44082
G1 X-22.065 Y15.818 E101.46204
G1 X-3.318 Y34.565 E102.06360
G1 X-4.253 Y34.565 E102.08482
G1 X-22.065 Y16.753 E102.65637
G1 X-22.065 Y17.688 E102.67759
G1 X-5.188 Y34.565 E103.21912
G1 X-6.124 Y34.565 E103.24034
G1 X-22.065 Y18.624 E103.75186
G1 X-22.065 Y19.559 E103.77308
G1 X-7.059 Y34.565 E104.25459
G1 X-7.995 Y34.565 E104.27581
G1 X-22.065 Y20.495 E104.72730
G1 X-22.065 Y21.430 E104.74853
G1 X-8.930 Y34.565 E105.17000
G1 X-9.865 Y34.565 E105.19122
G1 X-22.065 Y22.365 E105.58269
G1 X-22.065 Y23.301 E105.60391
G1 X-10.801 Y34.565 E105.96536
G1 X-11.736 Y34.565 E105.98658
G1 X-22.065 Y24.236 E106.31802
G1 X-22.065 Y25.171 E106.33924
G1 X-12.671 Y34.565 E106.64066
G1 X-13.607 Y34.565 E106.66188
G1 X-22.065 Y26.107 E106.93329
G1 X-22.065 Y27.042 E106.95452
G1 X-14.542 Y34.565 E107.19591
G1 X-15.478 Y34.565 E107.21713
G1 X-22.065 Y27.978 E107.42851
G1 X-22.065 Y28.913 E107.44974
G1 X-16.413 Y34.565 E107.63110
G1 X-17.348 Y34.565 E107.65232
G1 X-22.065 Y29.848 E107.80368
G1 X-22.065 Y30.784 E107.82490
G1 X-18.284 Y34.565 E107.94624
G1 X-19.219 Y34.565 E107.96746
G1 X-22.065 Y31.719 E108.05879
G1 X-22.065 Y32.655 E108.08001
G1 X-20.155 Y34.565 E108.14132
G1 X-21.090 Y34.565 E108.16254
G1 X-22.065 Y33.590 E108.19384
G1 X-22.065 Y34.525 E108.21506
G1 X-22.025 Y34.565 E108.21635
G1 F1800.000 E107.21635
G92 E0
G1 Z0.750 F7800.000
G1 X3.413 Y31.000 F7800.000
G1 E1.00000 F1800.000
G1 X3.413 Y25.742 E1.14879 F1800
G1 X24.250 Y25.742 E1.73837
G1 X24.250 Y31.000 E1.88716
G1 X21.556 Y31.000 E1.96338
G1 X21.556 Y32.370 E2.00212
G1 X17.386 Y32.370 E2.12011
G1 X17.386 Y31.220 E2.15265
G1 X15.473 Y31.220 E2.20676
G1 X15.473 Y31.000 E2.21297
G1 X11.120 Y31.000 E2.33616
G1 X11.120 Y31.220 E2.34236
G1 X9.033 Y31.220 E2.40139
G1 X9.033 Y31.000 E2.40760
G1 X3.488 Y31.000 E2.56450
G1 X2.913 Y31.500 F7800.000
G1 X2.913 Y25.242 E2.74159 F1800
G1 X24.750 Y25.242 E3.35946
G1 X24.750 Y31.500 E3.53655
G1 X22.056 Y31.500 E3.61277
G1 X22.056 Y32.870 E3.65151
G1 X16.886 Y32.870 E3.79779
G1 X16.886 Y31.720 E3.83032
G1 X14.973 Y31.720 E3.88444
G1 X14.973 Y31.500 E3.89064
G1 X11.620 Y31.500 E3.98554
G1 X11.620 Y32.870 E4.02428
G1 X10.446 Y32.870 E4.05749
G1 X10.446 Y31.720 E4.09003
G1 X8.533 Y31.720 E4.14414
G1 X8.533 Y31.500 E4.15035
G1 X2.988 Y31.500 E4.30725
G1 X2.413 Y32.000 F7800.000
G1 X2.413 Y24.742 E4.51263 F1260
G1 X25.250 Y24.742 E5.15879
G1 X25.250 Y32.000 E5.36418
G1 X22.556 Y32.000 E5.44040
G1 X22.556 Y35.019 E5.52580
G1 X21.670 Y35.019 E5.55088
G1 X21.670 Y33.370 E5.59755
G1 X19.882 Y33.370 E5.64812
G1 X19.882 Y35.019 E5.69479
G1 X18.996 Y35.019 E5.71987
G1 X18.996 Y33.370 E5.76654
G1 X17.208 Y33.370 E5.81711
G1 X17.208 Y34.095 E5.83764
G1 X16.386 Y34.095 E5.86091
G1 X16.386 Y32.220 E5.91398
G1 X14.473 Y32.220 E5.96810
G1 X14.473 Y32.000 E5.97430
G1 X12.120 Y32.000 E6.04090
G1 X12.120 Y35.019 E6.12631
G1 X11.233 Y35.019 E6.15139
G1 X11.233 Y33.370 E6.19805
G1 X9.946 Y33.370 E6.23448
G1 X9.946 Y32.220 E6.26702
G1 X8.033 Y32.220 E6.32113
G1 X8.033 Y32.000 E6.32733
G1 X5.679 Y32.000 E6.39394
G1 X5.679 Y32.220 E6.40014
G1 X4.267 Y32.220 E6.44011
G1 X4.267 Y32.000 E6.44631
G1 X2.488 Y32.000 E6.49664
G1 X2.663 Y31.567 F7800.000
G1 F1800.000 E5.49664
G92 E0
G1 X20.562 Y19.701 F7800.000
G1 E1.00000 F1800.000
G1 X20.562 Y13.073 E1.18753 F1800
G1 X24.250 Y13.073 E1.29187
G1 X24.250 Y19.701 E1.47941
G1 X20.637 Y19.701 E1.58162
G1 X20.062 Y20.201 F7800.000
G1 X20.062 Y12.573 E1.79745 F1800
G1 X24.750 Y12.573 E1.93008
G1 X24.750 Y21.850 E2.19258
G1 X24.024 Y21.850 E2.21313
G1 X24.024 Y20.201 E2.25980
G1 X20.137 Y20.201 E2.36975
G1 X19.562 Y20.701 F7800.000
G1 X19.562 Y12.073 E2.61387 F1800
G1 X25.250 Y12.073 E2.77480
G1 X25.250 Y22.350 E3.06559
G1 X23.524 Y22.350 E3.11444
G1 X23.524 Y20.701 E3.16110
G1 X21.736 Y20.701 E3.21167
G1 X21.736 Y22.350 E3.25834
G1 X20.850 Y22.350 E3.28342
G1 X20.850 Y20.701 E3.33009
G1 X19.637 Y20.701 E3.36439
G1 X19.812 Y20.268 F7800.000
G1 F1800.000 E2.36439
G92 E0
G1 X17.559 Y18.551 F7800.000
G1 E1.00000 F1800.000
G1 X16.824 Y18.551 E1.02080 F1800
G1 X16.824 Y18.332 E1.02700
G1 X12.471 Y18.332 E1.15019
G1 X12.471 Y19.701 E1.18893
G1 X8.301 Y19.701 E1.30691
G1 X8.301 Y18.551 E1.33945
G1 X6.388 Y18.551 E1.39357
G1 X6.388 Y18.332 E1.39977
G1 X2.034 Y18.332 E1.52296
G1 X2.034 Y18.551 E1.52916
G1 X-0.052 Y18.551 E1.58820
G1 X-0.052 Y18.332 E1.59440
G1 X-7.647 Y18.332 E1.80927
G1 X-7.647 Y19.701 E1.84801
G1 X-11.817 Y19.701 E1.96600
G1 X-11.817 Y18.551 E1.99854
G1 X-13.729 Y18.551 E2.05265
G1 X-13.729 Y18.332 E2.05885
G1 X-18.083 Y18.332 E2.18205
G1 X-18.083 Y18.551 E2.18825
G1 X-20.170 Y18.551 E2.24728
G1 X-20.170 Y18.332 E2.25349
G1 X-24.250 Y18.332 E2.36893
G1 X-24.250 Y13.073 E2.51773
G1 X17.559 Y13.073 E3.70069
G1 X17.559 Y18.476 E3.85357
G1 X18.059 Y19.051 F7800.000
G1 X16.324 Y19.051 E3.90266 F1800
G1 X16.324 Y18.832 E3.90886
G1 X12.971 Y18.832 E4.00376
G1 X12.971 Y20.201 E4.04250
G1 X7.801 Y20.201 E4.18878
G1 X7.801 Y19.051 E4.22131
G1 X5.888 Y19.051 E4.27543
G1 X5.888 Y18.832 E4.28163
G1 X2.534 Y18.832 E4.37653
G1 X2.534 Y20.201 E4.41527
G1 X1.360 Y20.201 E4.44848
G1 X1.360 Y19.051 E4.48102
G1 X-0.552 Y19.051 E4.53513
G1 X-0.552 Y18.832 E4.54133
G1 X-7.147 Y18.832 E4.72791
G1 X-7.147 Y20.201 E4.76665
G1 X-12.317 Y20.201 E4.91293
G1 X-12.317 Y19.051 E4.94547
G1 X-14.229 Y19.051 E4.99959
G1 X-14.229 Y18.832 E5.00579
G1 X-17.583 Y18.832 E5.10069
G1 X-17.583 Y20.201 E5.13942
G1 X-18.757 Y20.201 E5.17264
G1 X-18.757 Y19.051 E5.20517
G1 X-20.670 Y19.051 E5.25929
G1 X-20.670 Y18.832 E5.26549
G1 X-24.024 Y18.832 E5.36039
G1 X-24.024 Y21.850 E5.44579
G1 X-24.750 Y21.850 E5.46635
G1 X-24.750 Y12.573 E5.72884
G1 X18.059 Y12.573 E6.94010
G1 X18.059 Y18.976 E7.12127
G1 X17.737 Y19.551 F7800.000
G1 X15.824 Y19.551 E7.17538 F1260
G1 X15.824 Y19.332 E7.18159
G1 X13.471 Y19.332 E7.24819
G1 X13.471 Y22.350 E7.33359
G1 X12.584 Y22.350 E7.35867
G1 X12.584 Y20.701 E7.40534
G1 X10.797 Y20.701 E7.45591
G1 X10.797 Y22.350 E7.50258
G1 X9.910 Y22.350 E7.52766
G1 X9.910 Y20.701 E7.57433
G1 X8.123 Y20.701 E7.62490
G1 X8.123 Y21.427 E7.64543
G1 X7.301 Y21.427 E7.66870
G1 X7.301 Y19.551 E7.72177
G1 X5.388 Y19.551 E7.77589
G1 X5.388 Y19.332 E7.78209
G1 X3.034 Y19.332 E7.84869
G1 X3.034 Y22.350 E7.93410
G1 X2.148 Y22.350 E7.95918
G1 X2.148 Y20.701 E8.00584
G1 X0.860 Y20.701 E8.04227
G1 X0.860 Y19.551 E8.07480
G1 X-1.052 Y19.551 E8.12892
G1 X-1.052 Y19.332 E8.13512
G1 X-3.406 Y19.332 E8.20173
G1 X-3.406 Y22.350 E8.28713
G1 X-4.293 Y22.350 E8.31221
G1 X-4.293 Y19.332 E8.39762
G1 X-6.647 Y19.332 E8.46422
G1 X-6.647 Y22.350 E8.54962
G1 X-7.533 Y22.350 E8.57470
G1 X-7.533 Y20.701 E8.62137
G1 X-9.321 Y20.701 E8.67194
G1 X-9.321 Y22.350 E8.71861
G1 X-10.207 Y22.350 E8.74369
G1 X-10.207 Y20.701 E8.79036
G1 X-11.994 Y20.701 E8.84093
G1 X-11.994 Y21.427 E8.86146
G1 X-12.817 Y21.427 E8.88473
G1 X-12.817 Y19.551 E8.93780
G1 X-14.729 Y19.551 E8.99192
G1 X-14.729 Y19.332 E8.99812
G1 X-17.083 Y19.332 E9.06472
G1 X-17.083 Y22.350 E9.15013
G1 X-17.970 Y22.350 E9.17521
G1 X-17.970 Y20.701 E9.22187
G1 X-19.257 Y20.701 E9.25830
G1 X-19.257 Y19.551 E9.29083
G1 X-21.170 Y19.551 E9.34495
G1 X-21.170 Y19.332 E9.35115
G1 X-23.524 Y19.332 E9.41775
G1 X-23.524 Y22.350 E9.50316
G1 X-25.250 Y22.350 E9.55201
G1 X-25.250 Y12.073 E9.84280
G1 X18.559 Y12.073 E11.08235
G1 X18.559 Y21.427 E11.34700
G1 X17.737 Y21.427 E11.37027
G1 X17.737 Y19.626 E11.42122
G1 X17.737 Y19.051 F7800.000
G1 F1800.000 E10.42122
G92 E0
G1 X16.784 Y7.033 F7800.000
G1 E1.00000 F1800.000
G1 X16.784 Y5.883 E1.03254 F1800
G1 X14.871 Y5.883 E1.08665
G1 X14.871 Y5.664 E1.09286
G1 X10.518 Y5.664 E1.21605
G1 X10.518 Y5.883 E1.22225
G1 X8.431 Y5.883 E1.28128
G1 X8.431 Y5.664 E1.28749
G1 X5.191 Y5.664 E1.37917
G1 X5.191 Y0.405 E1.52796
