; generated by Slic3r 1.0.1-dev on 2014-03-02 at 13:36:41

; perimeters extrusion width = 0.50mm
; infill extrusion width = 0.52mm
; solid infill extrusion width = 0.52mm
; top infill extrusion width = 0.52mm

G21 ; set units to millimeters
M107
M104 S200 T-1 ; set temperature
M104 S200 T0 ; set temperature
G28 ; home all axes
G1 Z5 F5000 ; lift nozzle

M109 S200 T-1 ; wait for temperature to be reached
M109 S200 T0 ; wait for temperature to be reached
G90 ; use absolute coordinates
G92 E0
M82 ; use absolute distances for extrusion
T-1
G92 E0
G1 F1800.000 E-1.00000
G92 E0
G1 Z0.350 F7800.000
G1 F1800.000 E-9.00000
G92 E0
T0
G92 E0
G1 F1800.000 E-1.00000
G92 E0
G1 X5.648 Y24.226 F7800.000
G1 E1.00000 F1800.000
G1 X4.378 Y24.533 E1.04251 F540
G1 X3.545 Y24.697 E1.07012
G1 X2.907 Y24.795 E1.09114
G1 X1.891 Y24.887 E1.12433
G1 X-0.211 Y24.996 E1.19280
G1 X-1.341 Y25.006 E1.22958
G1 X-2.510 Y24.969 E1.26763
G1 X-3.030 Y24.935 E1.28459
G1 X-5.649 Y24.676 E1.37022
G1 X-6.929 Y24.385 E1.41290
G1 X-7.205 Y24.288 E1.42245
G1 X-9.446 Y23.442 E1.50036
G1 X-12.080 Y22.380 E1.59277
G1 X-12.657 Y22.121 E1.61335
G1 X-13.328 Y21.788 E1.63772
G1 X-15.649 Y20.537 E1.72349
G1 X-16.188 Y20.119 E1.74571
G1 X-17.431 Y19.051 E1.79902
G1 X-19.536 Y17.222 E1.88976
G1 X-20.025 Y16.755 E1.91174
G1 X-20.829 Y15.877 E1.95047
G1 X-21.238 Y15.369 E1.97169
G1 X-22.557 Y13.645 E2.04231
G1 X-23.613 Y12.173 E2.10127
G1 X-23.903 Y11.724 E2.11864
G1 X-24.180 Y11.227 E2.13717
G1 X-25.029 Y9.480 E2.20037
G1 X-25.185 Y9.042 E2.21549
G1 X-25.812 Y7.071 E2.28277
G1 X-26.947 Y3.101 E2.41711
G1 X-27.398 Y-0.655 E2.54020
G1 X-27.288 Y-3.734 E2.64043
G1 X-26.778 Y-6.830 E2.74254
G1 X-26.212 Y-9.346 E2.82642
G1 X-25.712 Y-11.021 E2.88329
G1 X-25.547 Y-11.497 E2.89968
G1 X-25.072 Y-12.695 E2.94163
G1 X-24.730 Y-13.422 E2.96776
G1 X-24.082 Y-14.619 E3.01204
G1 X-23.859 Y-14.968 E3.02552
G1 X-22.384 Y-17.121 E3.11044
G1 X-22.041 Y-17.588 E3.12928
G1 X-20.286 Y-19.735 E3.21951
G1 X-19.892 Y-20.166 E3.23849
G1 X-18.059 Y-21.981 E3.32242
G1 X-17.734 Y-22.249 E3.33613
G1 X-15.818 Y-23.661 E3.41356
G1 X-11.449 Y-26.198 E3.57796
G1 X-10.244 Y-26.695 E3.62034
G1 X-7.103 Y-27.646 E3.72712
G1 X-6.411 Y-27.801 E3.75019
G1 X-4.069 Y-28.187 E3.82742
G1 X-2.055 Y-28.435 E3.89344
G1 X-0.994 Y-28.496 E3.92802
G1 X-0.289 Y-28.494 E3.95095
G1 X0.553 Y-28.421 E3.97845
G1 X4.962 Y-27.815 E4.12325
G1 X5.635 Y-27.666 E4.14567
G1 X7.138 Y-27.193 E4.19696
G1 X10.723 Y-25.843 E4.32158
G1 X11.511 Y-25.432 E4.35049
G1 X14.241 Y-23.795 E4.45408
G1 X15.415 Y-23.000 E4.50021
G1 X15.982 Y-22.531 E4.52414
G1 X17.687 Y-20.991 E4.59889
G1 X18.245 Y-20.454 E4.62408
G1 X19.144 Y-19.449 E4.66794
G1 X20.376 Y-17.974 E4.73049
G1 X21.684 Y-16.243 E4.80107
G1 X22.788 Y-14.574 E4.86618
G1 X23.442 Y-13.288 E4.91312
G1 X24.859 Y-9.555 E5.04304
G1 X25.109 Y-8.839 E5.06770
G1 X25.514 Y-7.172 E5.12352
G1 X25.898 Y-4.114 E5.22380
G1 X25.967 Y-3.499 E5.24392
G1 X26.006 Y-2.892 E5.26370
G1 X26.018 Y-0.655 E5.33650
G1 X25.996 Y-0.110 E5.35424
G1 X25.898 Y1.279 E5.39954
G1 X25.795 Y2.116 E5.42697
G1 X25.715 Y2.594 E5.44275
G1 X25.360 Y4.328 E5.50033
G1 X24.787 Y6.511 E5.57376
G1 X23.914 Y8.893 E5.65632
G1 X23.746 Y9.302 E5.67070
G1 X23.233 Y10.349 E5.70862
G1 X22.451 Y11.734 E5.76038
G1 X21.786 Y12.789 E5.80095
G1 X20.773 Y14.255 E5.85892
G1 X19.664 Y15.690 E5.91794
G1 X19.235 Y16.181 E5.93915
G1 X18.844 Y16.571 E5.95711
G1 X15.697 Y19.506 E6.09712
G1 X14.721 Y20.230 E6.13665
G1 X11.723 Y22.019 E6.25026
G1 X11.304 Y22.218 E6.26533
G1 X8.133 Y23.554 E6.37729
G1 X5.720 Y24.206 E6.45860
G1 F1800.000 E-3.54140
G92 E0
T-1
G92 E0
G1 X3.495 Y16.187 F7800.000
G1 E10.00000 F1800.000
G1 X2.903 Y16.340 E10.01989 F540
G1 X1.905 Y16.534 E10.05298
G1 X1.433 Y16.579 E10.06839
G1 X-0.635 Y16.685 E10.13575
G1 X-1.468 Y16.680 E10.16286
G1 X-2.289 Y16.646 E10.18960
G1 X-2.796 Y16.595 E10.20619
G1 X-3.394 Y16.483 E10.22597
G1 X-3.885 Y16.470 E10.24196
G1 X-4.092 Y16.437 E10.24876
G1 X-4.379 Y16.444 E10.25812
G1 X-5.192 Y16.115 E10.28664
G1 X-6.345 Y15.720 E10.32630
G1 X-7.277 Y15.324 E10.35926
G1 X-7.884 Y15.105 E10.38024
G1 X-8.788 Y14.738 E10.41199
G1 X-9.568 Y14.364 E10.44015
G1 X-10.455 Y13.888 E10.47288
G1 X-10.850 Y13.709 E10.48700
G1 X-11.098 Y13.449 E10.49868
G1 X-11.402 Y13.183 E10.51183
G1 X-11.960 Y12.768 E10.53444
G1 X-12.178 Y12.530 E10.54495
G1 X-12.648 Y12.145 E10.56471
G1 X-13.282 Y11.549 E10.59302
G1 X-14.043 Y10.969 E10.62417
G1 X-14.467 Y10.514 E10.64440
G1 X-14.655 Y10.279 E10.65419
G1 X-15.249 Y9.408 E10.68850
G1 X-15.611 Y8.968 E10.70704
G1 X-15.859 Y8.703 E10.71883
G1 X-16.183 Y8.199 E10.73833
G1 X-16.619 Y7.655 E10.76102
G1 X-16.787 Y7.407 E10.77076
G1 X-17.182 Y6.445 E10.80459
G1 X-17.307 Y6.287 E10.81117
G1 X-17.410 Y5.868 E10.82519
G1 X-17.864 Y4.609 E10.86873
G1 X-17.956 Y4.249 E10.88084
G1 X-18.107 Y3.358 E10.91021
G1 X-18.239 Y2.899 E10.92575
G1 X-18.412 Y2.432 E10.94196
G1 X-18.598 Y2.022 E10.95661
G1 X-18.721 Y1.805 E10.96474
G1 X-18.705 Y1.295 E10.98134
G1 X-18.745 Y0.417 E11.00992
G1 X-18.872 Y-0.179 E11.02977
G1 X-19.060 Y-0.676 E11.04703
G1 X-19.016 Y-2.175 E11.09582
G1 X-19.048 Y-2.430 E11.10420
G1 X-18.913 Y-2.966 E11.12216
G1 X-18.881 Y-3.239 E11.13112
G1 X-18.881 Y-3.605 E11.14303
G1 X-18.748 Y-4.227 E11.16370
G1 X-18.647 Y-4.842 E11.18400
G1 X-18.580 Y-5.399 E11.20224
G1 X-18.171 Y-7.200 E11.26235
G1 X-18.022 Y-7.467 E11.27228
G1 X-17.805 Y-8.138 E11.29521
G1 X-17.751 Y-8.574 E11.30952
G1 X-17.448 Y-9.360 E11.33694
G1 X-17.399 Y-9.471 E11.34089
G1 X-17.254 Y-9.674 E11.34899
G1 X-17.157 Y-9.849 E11.35550
G1 X-16.945 Y-10.307 E11.37193
G1 X-16.649 Y-10.636 E11.38630
G1 X-15.934 Y-11.587 E11.42503
G1 X-15.743 Y-11.886 E11.43657
G1 X-15.407 Y-12.565 E11.46123
G1 X-14.220 Y-13.912 E11.51964
G1 X-13.917 Y-14.340 E11.53669
G1 X-13.769 Y-14.457 E11.54284
G1 X-13.130 Y-15.053 E11.57126
G1 X-12.858 Y-15.352 E11.58442
G1 X-12.686 Y-15.598 E11.59418
G1 X-12.574 Y-15.715 E11.59943
G1 X-11.689 Y-16.362 E11.63512
G1 X-11.499 Y-16.538 E11.64354
G1 X-11.112 Y-16.707 E11.65730
G1 X-10.089 Y-17.247 E11.69492
G1 X-9.821 Y-17.418 E11.70527
G1 X-9.149 Y-17.903 E11.73222
G1 X-8.481 Y-18.262 E11.75690
G1 X-7.724 Y-18.749 E11.78618
G1 X-7.393 Y-18.815 E11.79716
G1 X-6.883 Y-18.983 E11.81464
G1 X-6.604 Y-19.030 E11.82384
G1 X-6.223 Y-19.142 E11.83678
G1 X-6.031 Y-19.202 E11.84331
G1 X-5.774 Y-19.328 E11.85261
G1 X-5.612 Y-19.361 E11.85801
G1 X-4.944 Y-19.610 E11.88119
G1 X-4.331 Y-19.671 E11.90122
G1 X-3.969 Y-19.745 E11.91324
G1 X-3.681 Y-19.775 E11.92268
G1 X-2.998 Y-19.931 E11.94546
G1 X-2.835 Y-19.912 E11.95080
G1 X-2.302 Y-19.929 E11.96815
G1 X-1.733 Y-20.025 E11.98693
G1 X-1.221 Y-20.155 E12.00413
G1 X-0.587 Y-20.177 E12.02476
G1 X-0.332 Y-20.115 E12.03330
G1 X0.038 Y-20.059 E12.04546
G1 X0.217 Y-20.034 E12.05133
G1 X0.385 Y-20.037 E12.05680
G1 X1.558 Y-19.754 E12.09608
G1 X1.949 Y-19.689 E12.10898
G1 X2.440 Y-19.665 E12.12496
G1 X3.009 Y-19.676 E12.14349
G1 X3.522 Y-19.617 E12.16029
G1 X4.323 Y-19.362 E12.18765
G1 X5.480 Y-18.892 E12.22825
G1 X6.366 Y-18.576 E12.25887
G1 X7.003 Y-18.310 E12.28132
G1 X7.290 Y-18.227 E12.29104
G1 X7.938 Y-17.768 E12.31687
G1 X8.290 Y-17.556 E12.33026
G1 X9.702 Y-16.809 E12.38222
G1 X9.922 Y-16.619 E12.39167
G1 X10.154 Y-16.469 E12.40066
G1 X10.296 Y-16.404 E12.40573
G1 X10.624 Y-15.927 E12.42459
G1 X11.153 Y-15.414 E12.44855
G1 X12.123 Y-14.802 E12.48586
G1 X12.226 Y-14.707 E12.49043
G1 X12.773 Y-14.096 E12.51711
G1 X13.342 Y-13.380 E12.54685
G1 X13.784 Y-12.894 E12.56822
G1 X14.181 Y-12.337 E12.59047
G1 X14.878 Y-11.455 E12.62706
G1 X15.696 Y-10.220 E12.67525
G1 X15.865 Y-9.699 E12.69309
G1 X16.135 Y-9.011 E12.71714
G1 X16.374 Y-8.470 E12.73637
G1 X16.475 Y-7.975 E12.75281
G1 X16.618 Y-7.556 E12.76720
G1 X17.033 Y-6.706 E12.79798
G1 X17.143 Y-6.429 E12.80769
G1 X17.268 Y-6.007 E12.82200
G1 X17.304 Y-5.493 E12.83877
G1 X17.561 Y-3.696 E12.89783
G1 X17.689 Y-2.607 E12.93351
G1 X17.692 Y-0.646 E12.99731
G1 X17.615 Y0.474 E13.03383
G1 X17.552 Y0.978 E13.05036
G1 X17.198 Y2.694 E13.10735
G1 X16.946 Y3.563 E13.13680
G1 X16.888 Y3.887 E13.14750
G1 X16.703 Y4.346 E13.16360
G1 X16.617 Y4.637 E13.17349
G1 X16.382 Y5.206 E13.19352
G1 X16.097 Y6.026 E13.22175
G1 X15.826 Y6.555 E13.24110
G1 X15.341 Y7.410 E13.27306
G1 X14.872 Y8.157 E13.30178
G1 X14.545 Y8.560 E13.31865
G1 X14.130 Y9.241 E13.34461
G1 X13.765 Y9.691 E13.36345
G1 X13.184 Y10.469 E13.39506
G1 X12.942 Y10.654 E13.40494
G1 X12.531 Y11.027 E13.42300
G1 X12.259 Y11.308 E13.43576
G1 X11.263 Y12.171 E13.47863
G1 X10.989 Y12.430 E13.49091
G1 X10.324 Y13.132 E13.52236
G1 X9.830 Y13.358 E13.54002
G1 X9.180 Y13.833 E13.56623
G1 X8.841 Y14.022 E13.57883
G1 X8.592 Y14.200 E13.58880
G1 X8.105 Y14.456 E13.60669
G1 X8.017 Y14.530 E13.61046
G1 X7.885 Y14.541 E13.61477
G1 X7.586 Y14.641 E13.62502
G1 X6.892 Y14.940 E13.64960
G1 X6.506 Y15.132 E13.66363
G1 X5.831 Y15.542 E13.68933
G1 X5.625 Y15.538 E13.69602
G1 X4.966 Y15.690 E13.71803
G1 X3.947 Y16.013 E13.75282
G1 X3.566 Y16.164 E13.76613
G1 X3.679 Y16.818 F7800.000
G1 X3.044 Y16.982 E13.78749 F540
G1 X1.997 Y17.185 E13.82219
G1 X1.471 Y17.235 E13.83936
G1 X-0.620 Y17.342 E13.90750
G1 X-1.485 Y17.337 E13.93563
G1 X-2.342 Y17.301 E13.96354
G1 X-2.895 Y17.246 E13.98164
G1 X-3.478 Y17.135 E14.00092
G1 X-3.908 Y17.127 E14.01493
G1 X-4.153 Y17.096 E14.02296
G1 X-4.462 Y17.104 E14.03303
G1 X-4.562 Y17.086 E14.03632
G1 X-4.750 Y16.992 E14.04315
G1 X-5.435 Y16.726 E14.06707
G1 X-6.593 Y16.328 E14.10691
G1 X-7.521 Y15.934 E14.13972
G1 X-8.128 Y15.715 E14.16072
G1 X-9.036 Y15.347 E14.19259
G1 X-9.876 Y14.945 E14.22288
G1 X-10.752 Y14.475 E14.25524
G1 X-11.253 Y14.246 E14.27313
G1 X-11.559 Y13.919 E14.28772
G1 X-11.820 Y13.691 E14.29899
G1 X-12.396 Y13.265 E14.32228
G1 X-12.631 Y13.009 E14.33361
G1 X-13.070 Y12.649 E14.35207
G1 X-13.710 Y12.048 E14.38063
G1 X-14.493 Y11.450 E14.41269
G1 X-14.961 Y10.947 E14.43504
G1 X-15.175 Y10.681 E14.44614
G1 X-15.777 Y9.798 E14.48094
G1 X-16.098 Y9.409 E14.49734
G1 X-16.368 Y9.122 E14.51015
G1 X-16.722 Y8.575 E14.53136
G1 X-17.130 Y8.068 E14.55254
G1 X-17.357 Y7.736 E14.56562
G1 X-17.458 Y7.536 E14.57290
G1 X-17.583 Y7.177 E14.58527
G1 X-17.750 Y6.786 E14.59911
G1 X-17.920 Y6.571 E14.60803
G1 X-18.034 Y6.076 E14.62454
G1 X-18.490 Y4.808 E14.66840
G1 X-18.599 Y4.385 E14.68260
G1 X-18.752 Y3.490 E14.71214
G1 X-18.866 Y3.094 E14.72556
G1 X-19.018 Y2.690 E14.73961
G1 X-19.184 Y2.321 E14.75275
G1 X-19.323 Y2.075 E14.76198
G1 X-19.367 Y1.950 E14.76628
G1 X-19.382 Y1.585 E14.77815
G1 X-19.363 Y1.281 E14.78807
G1 X-19.396 Y0.510 E14.81318
G1 X-19.501 Y0.016 E14.82961
G1 X-19.730 Y-0.565 E14.84992
G1 X-19.679 Y-1.755 E14.88868
G1 X-19.674 Y-2.139 E14.90117
G1 X-19.706 Y-2.397 E14.90962
G1 X-19.704 Y-2.552 E14.91467
G1 X-19.561 Y-3.085 E14.93264
G1 X-19.540 Y-3.264 E14.93848
G1 X-19.552 Y-3.530 E14.94715
G1 X-19.529 Y-3.722 E14.95346
G1 X-19.396 Y-4.341 E14.97404
G1 X-19.297 Y-4.941 E14.99384
G1 X-19.224 Y-5.535 E15.01331
G1 X-18.853 Y-7.107 E15.06585
G1 X-18.812 Y-7.349 E15.07385
G1 X-18.784 Y-7.449 E15.07721
G1 X-18.628 Y-7.730 E15.08768
G1 X-18.452 Y-8.269 E15.10611
G1 X-18.383 Y-8.767 E15.12246
G1 X-18.058 Y-9.605 E15.15173
G1 X-17.972 Y-9.799 E15.15862
G1 X-17.743 Y-10.148 E15.17221
G1 X-17.507 Y-10.664 E15.19065
G1 X-17.155 Y-11.056 E15.20781
G1 X-16.478 Y-11.955 E15.24442
G1 X-16.275 Y-12.285 E15.25704
G1 X-16.095 Y-12.645 E15.27013
G1 X-16.031 Y-12.828 E15.27644
G1 X-15.921 Y-12.976 E15.28243
G1 X-14.724 Y-14.333 E15.34131
G1 X-14.533 Y-14.590 E15.35172
G1 X-14.418 Y-14.781 E15.35897
G1 X-14.217 Y-14.940 E15.36732
G1 X-13.591 Y-15.523 E15.39515
G1 X-13.372 Y-15.764 E15.40573
G1 X-13.196 Y-16.016 E15.41574
G1 X-13.006 Y-16.214 E15.42467
G1 X-12.099 Y-16.878 E15.46123
G1 X-11.879 Y-17.081 E15.47100
G1 X-11.385 Y-17.305 E15.48862
G1 X-10.423 Y-17.813 E15.52400
G1 X-9.494 Y-18.463 E15.56090
G1 X-8.594 Y-18.959 E15.59435
G1 X-7.968 Y-19.375 E15.61879
G1 X-7.592 Y-19.444 E15.63124
G1 X-7.044 Y-19.621 E15.64998
G1 X-6.754 Y-19.671 E15.65954
G1 X-6.411 Y-19.772 E15.67119
G1 X-6.274 Y-19.815 E15.67584
G1 X-6.009 Y-19.944 E15.68543
G1 X-5.793 Y-19.995 E15.69266
G1 X-5.059 Y-20.257 E15.71802
G1 X-4.428 Y-20.321 E15.73867
G1 X-4.076 Y-20.394 E15.75035
G1 X-3.786 Y-20.425 E15.75985
G1 X-3.016 Y-20.594 E15.78548
G1 X-2.810 Y-20.570 E15.79224
G1 X-2.350 Y-20.585 E15.80722
G1 X-1.873 Y-20.668 E15.82298
G1 X-1.332 Y-20.804 E15.84112
G1 X-0.574 Y-20.834 E15.86582
G1 X0.255 Y-20.692 E15.89317
G1 X0.468 Y-20.696 E15.90011
G1 X1.667 Y-20.403 E15.94026
G1 X2.023 Y-20.343 E15.95201
G1 X2.441 Y-20.323 E15.96561
G1 X3.025 Y-20.333 E15.98464
G1 X3.504 Y-20.290 E16.00028
G1 X3.683 Y-20.255 E16.00620
G1 X4.538 Y-19.983 E16.03541
G1 X5.416 Y-19.620 E16.06631
G1 X6.621 Y-19.183 E16.10801
G1 X7.230 Y-18.927 E16.12951
G1 X7.365 Y-18.880 E16.13416
G1 X7.652 Y-18.834 E16.14361
G1 X7.710 Y-18.733 E16.14742
G1 X8.292 Y-18.322 E16.17059
G1 X8.935 Y-17.954 E16.19470
G1 X10.076 Y-17.355 E16.23663
G1 X10.317 Y-17.146 E16.24701
G1 X10.470 Y-17.047 E16.25295
G1 X10.751 Y-16.925 E16.26290
G1 X11.135 Y-16.344 E16.28556
G1 X11.556 Y-15.937 E16.30461
G1 X12.485 Y-15.351 E16.34036
G1 X12.685 Y-15.178 E16.34896
G1 X13.279 Y-14.516 E16.37789
G1 X13.840 Y-13.808 E16.40728
G1 X14.295 Y-13.309 E16.42924
G1 X14.707 Y-12.731 E16.45234
G1 X15.413 Y-11.838 E16.48937
G1 X16.302 Y-10.486 E16.54204
G1 X16.478 Y-9.934 E16.56089
G1 X16.744 Y-9.258 E16.58452
G1 X16.979 Y-8.732 E16.60327
G1 X17.030 Y-8.568 E16.60883
G1 X17.103 Y-8.170 E16.62200
G1 X17.231 Y-7.795 E16.63489
G1 X17.628 Y-6.986 E16.66423
G1 X17.771 Y-6.626 E16.67683
G1 X17.916 Y-6.133 E16.69356
G1 X17.956 Y-5.575 E16.71175
G1 X18.212 Y-3.785 E16.77057
G1 X18.346 Y-2.641 E16.80806
G1 X18.348 Y-0.614 E16.87401
G1 X18.270 Y0.537 E16.91153
G1 X18.200 Y1.088 E16.92960
G1 X17.837 Y2.848 E16.98807
G1 X17.582 Y3.729 E17.01790
G1 X17.530 Y4.044 E17.02830
G1 X17.323 Y4.568 E17.04663
G1 X17.235 Y4.864 E17.05669
G1 X16.999 Y5.433 E17.07672
G1 X16.902 Y5.752 E17.08755
G1 X16.692 Y6.305 E17.10680
G1 X16.405 Y6.866 E17.12730
G1 X15.908 Y7.743 E17.16010
G1 X15.397 Y8.554 E17.19130
G1 X15.093 Y8.924 E17.20688
G1 X14.666 Y9.623 E17.23354
G1 X14.287 Y10.091 E17.25313
G1 X13.682 Y10.899 E17.28598
G1 X12.996 Y11.492 E17.31546
G1 X12.711 Y11.785 E17.32875
G1 X12.423 Y12.044 E17.34135
G1 X12.151 Y12.260 E17.35265
G1 X11.705 Y12.657 E17.37209
G1 X11.456 Y12.892 E17.38325
G1 X10.669 Y13.715 E17.42029
G1 X10.155 Y13.934 E17.43847
G1 X9.529 Y14.391 E17.46366
G1 X9.196 Y14.576 E17.47608
G1 X8.923 Y14.768 E17.48694
G1 X8.466 Y15.011 E17.50376
G1 X8.280 Y15.168 E17.51169
G1 X8.017 Y15.190 E17.52029
G1 X7.823 Y15.254 E17.52694
G1 X7.166 Y15.538 E17.55023
G1 X6.822 Y15.709 E17.56271
G1 X6.050 Y16.176 E17.59206
G1 X5.950 Y16.201 E17.59543
G1 X5.689 Y16.197 E17.60393
G1 X5.157 Y16.319 E17.62168
G1 X4.180 Y16.628 E17.65502
G1 X3.751 Y16.795 E17.67000
G1 X3.864 Y17.449 F7800.000
G1 X3.185 Y17.624 E17.69282 F378
G1 X2.089 Y17.836 E17.72914
G1 X1.509 Y17.891 E17.74807
G1 X-0.606 Y18.000 E17.81700
G1 X-1.502 Y17.994 E17.84613
G1 X-2.395 Y17.956 E17.87521
G1 X-2.994 Y17.897 E17.89481
G1 X-3.562 Y17.787 E17.91362
G1 X-3.931 Y17.784 E17.92563
G1 X-4.214 Y17.755 E17.93491
G1 X-4.511 Y17.762 E17.94454
G1 X-4.758 Y17.719 E17.95272
G1 X-5.017 Y17.594 E17.96207
G1 X-5.678 Y17.337 E17.98516
G1 X-6.842 Y16.937 E18.02518
G1 X-7.766 Y16.544 E18.05785
G1 X-8.373 Y16.325 E18.07887
G1 X-9.573 Y15.829 E18.12111
G1 X-10.170 Y15.533 E18.14278
G1 X-11.049 Y15.061 E18.17526
G1 X-11.631 Y14.794 E18.19608
G1 X-12.020 Y14.388 E18.21436
G1 X-12.420 Y14.057 E18.23126
G1 X-12.831 Y13.762 E18.24772
G1 X-13.084 Y13.487 E18.25988
G1 X-13.492 Y13.153 E18.27703
G1 X-14.138 Y12.548 E18.30583
G1 X-14.942 Y11.931 E18.33881
G1 X-15.454 Y11.381 E18.36326
G1 X-15.693 Y11.086 E18.37562
G1 X-16.306 Y10.188 E18.41098
G1 X-16.585 Y9.851 E18.42524
G1 X-16.877 Y9.541 E18.43909
G1 X-17.342 Y8.838 E18.46650
G1 X-17.737 Y8.353 E18.48686
G1 X-17.927 Y8.065 E18.49810
G1 X-18.061 Y7.799 E18.50778
G1 X-18.319 Y7.127 E18.53120
G1 X-18.518 Y6.875 E18.54166
G1 X-18.657 Y6.285 E18.56137
G1 X-19.173 Y4.820 E18.61189
